; HEADER_BLOCK_START
; generated by OrcaSlicer 2.1.0-beta on 2024-11-30 at 20:00:32
; total layer number: 88
; filament_density: 1.04
; filament_diameter: 1.75
; max_z_height: 17.90
; HEADER_BLOCK_END

; THUMBNAIL_BLOCK_START

;
; THUMBNAIL_BLOCK_END

; external perimeters extrusion width = 0.48mm
; perimeters extrusion width = 0.48mm
; infill extrusion width = 0.48mm
; solid infill extrusion width = 0.48mm
; top infill extrusion width = 0.48mm
; first layer extrusion width = 0.48mm

; EXECUTABLE_BLOCK_START
EXCLUDE_OBJECT_DEFINE NAME=Cone_id_0_copy_0 CENTER=90,90 POLYGON=[[81,90],[81.0014,89.8429],[81.0055,89.6859],[81.0123,89.529],[81.0219,89.3722],[81.0342,89.2156],[81.0493,89.0592],[81.0671,88.9032],[81.0876,88.7474],[81.1108,88.5921],[81.1367,88.4372],[81.1654,88.2827],[81.1967,88.1288],[81.2307,87.9754],[81.2673,87.8227],[81.3067,87.6706],[81.3486,87.5193],[81.3933,87.3687],[81.4405,87.2188],[81.4903,87.0699],[81.5428,86.9218],[81.5978,86.7747],[81.6553,86.6285],[81.7155,86.4834],[81.7781,86.3394],[81.8432,86.1964],[81.9109,86.0547],[81.9809,85.9141],[82.0535,85.7748],[82.1284,85.6367],[82.2058,85.5],[82.2855,85.3647],[82.3676,85.2307],[82.452,85.0982],[82.5387,84.9673],[82.6276,84.8378],[82.7188,84.7099],[82.8123,84.5837],[82.9079,84.459],[83.0057,84.3361],[83.1056,84.2149],[83.2076,84.0955],[83.3117,83.9778],[83.4178,83.862],[83.5259,83.7481],[83.636,83.636],[83.7481,83.5259],[83.862,83.4178],[83.9778,83.3117],[84.0955,83.2076],[84.2149,83.1056],[84.3361,83.0057],[84.459,82.9079],[84.5837,82.8123],[84.7099,82.7188],[84.8378,82.6276],[84.9673,82.5387],[85.0982,82.452],[85.2307,82.3676],[85.3647,82.2855],[85.5,82.2058],[85.6367,82.1284],[85.7748,82.0535],[85.9141,81.9809],[86.0547,81.9109],[86.1964,81.8432],[86.3394,81.7781],[86.4834,81.7155],[86.6285,81.6553],[86.7747,81.5978],[86.9218,81.5428],[87.0699,81.4903],[87.2188,81.4405],[87.3687,81.3933],[87.5193,81.3486],[87.6706,81.3067],[87.8227,81.2673],[87.9754,81.2307],[88.1288,81.1967],[88.2827,81.1654],[88.4372,81.1367],[88.5921,81.1108],[88.7474,81.0876],[88.9032,81.0671],[89.0592,81.0493],[89.2156,81.0342],[89.3722,81.0219],[89.529,81.0123],[89.6859,81.0055],[89.8429,81.0014],[90,81],[90.1571,81.0014],[90.3141,81.0055],[90.471,81.0123],[90.6278,81.0219],[90.7844,81.0342],[90.9408,81.0493],[91.0968,81.0671],[91.2526,81.0876],[91.4079,81.1108],[91.5628,81.1367],[91.7173,81.1654],[91.8712,81.1967],[92.0246,81.2307],[92.1773,81.2673],[92.3294,81.3067],[92.4807,81.3486],[92.6313,81.3933],[92.7812,81.4405],[92.9301,81.4903],[93.0782,81.5428],[93.2253,81.5978],[93.3715,81.6553],[93.5166,81.7155],[93.6606,81.7781],[93.8036,81.8432],[93.9453,81.9109],[94.0859,81.9809],[94.2252,82.0535],[94.3633,82.1284],[94.5,82.2058],[94.6353,82.2855],[94.7693,82.3676],[94.9018,82.452],[95.0327,82.5387],[95.1622,82.6276],[95.2901,82.7188],[95.4163,82.8123],[95.541,82.9079],[95.6639,83.0057],[95.7851,83.1056],[95.9045,83.2076],[96.0222,83.3117],[96.138,83.4178],[96.2519,83.5259],[96.364,83.636],[96.4741,83.7481],[96.5822,83.862],[96.6883,83.9778],[96.7924,84.0955],[96.8944,84.2149],[96.9943,84.3361],[97.0921,84.459],[97.1877,84.5837],[97.2812,84.7099],[97.3724,84.8378],[97.4613,84.9673],[97.548,85.0982],[97.6324,85.2307],[97.7145,85.3647],[97.7942,85.5],[97.8716,85.6367],[97.9465,85.7748],[98.0191,85.9141],[98.0891,86.0547],[98.1568,86.1964],[98.2219,86.3394],[98.2845,86.4834],[98.3447,86.6285],[98.4022,86.7747],[98.4572,86.9218],[98.5097,87.0699],[98.5595,87.2188],[98.6067,87.3687],[98.6514,87.5193],[98.6933,87.6706],[98.7327,87.8227],[98.7693,87.9754],[98.8033,88.1288],[98.8346,88.2827],[98.8633,88.4372],[98.8892,88.5921],[98.9124,88.7474],[98.9329,88.9032],[98.9507,89.0592],[98.9658,89.2156],[98.9781,89.3722],[98.9877,89.529],[98.9945,89.6859],[98.9986,89.8429],[99,90],[98.9986,90.1571],[98.9945,90.3141],[98.9877,90.471],[98.9781,90.6278],[98.9658,90.7844],[98.9507,90.9408],[98.9329,91.0968],[98.9124,91.2526],[98.8892,91.4079],[98.8633,91.5628],[98.8346,91.7173],[98.8033,91.8712],[98.7693,92.0246],[98.7327,92.1773],[98.6933,92.3294],[98.6514,92.4807],[98.6067,92.6313],[98.5595,92.7812],[98.5097,92.9301],[98.4572,93.0782],[98.4022,93.2253],[98.3447,93.3715],[98.2845,93.5166],[98.2219,93.6606],[98.1568,93.8036],[98.0891,93.9453],[98.0191,94.0859],[97.9465,94.2252],[97.8716,94.3633],[97.7942,94.5],[97.7145,94.6353],[97.6324,94.7693],[97.548,94.9018],[97.4613,95.0327],[97.3724,95.1622],[97.2812,95.2901],[97.1877,95.4163],[97.0921,95.541],[96.9943,95.6639],[96.8944,95.7851],[96.7924,95.9045],[96.6883,96.0222],[96.5822,96.138],[96.4741,96.2519],[96.364,96.364],[96.2519,96.4741],[96.138,96.5822],[96.0222,96.6883],[95.9045,96.7924],[95.7851,96.8944],[95.6639,96.9943],[95.541,97.0921],[95.4163,97.1877],[95.2901,97.2812],[95.1622,97.3724],[95.0327,97.4613],[94.9018,97.548],[94.7693,97.6324],[94.6353,97.7145],[94.5,97.7942],[94.3633,97.8716],[94.2252,97.9465],[94.0859,98.0191],[93.9453,98.0891],[93.8036,98.1568],[93.6606,98.2219],[93.5166,98.2845],[93.3715,98.3447],[93.2253,98.4022],[93.0782,98.4572],[92.9301,98.5097],[92.7812,98.5595],[92.6313,98.6067],[92.4807,98.6514],[92.3294,98.6933],[92.1773,98.7327],[92.0246,98.7693],[91.8712,98.8033],[91.7173,98.8346],[91.5628,98.8633],[91.4079,98.8892],[91.2526,98.9124],[91.0968,98.9329],[90.9408,98.9507],[90.7844,98.9658],[90.6278,98.9781],[90.471,98.9877],[90.3141,98.9945],[90.1571,98.9986],[90,99],[89.8429,98.9986],[89.6859,98.9945],[89.529,98.9877],[89.3722,98.9781],[89.2156,98.9658],[89.0592,98.9507],[88.9032,98.9329],[88.7474,98.9124],[88.5921,98.8892],[88.4372,98.8633],[88.2827,98.8346],[88.1288,98.8033],[87.9754,98.7693],[87.8227,98.7327],[87.6706,98.6933],[87.5193,98.6514],[87.3687,98.6067],[87.2188,98.5595],[87.0699,98.5097],[86.9218,98.4572],[86.7747,98.4022],[86.6285,98.3447],[86.4834,98.2845],[86.3394,98.2219],[86.1964,98.1568],[86.0547,98.0891],[85.9141,98.0191],[85.7748,97.9465],[85.6367,97.8716],[85.5,97.7942],[85.3647,97.7145],[85.2307,97.6324],[85.0982,97.548],[84.9673,97.4613],[84.8378,97.3724],[84.7099,97.2812],[84.5837,97.1877],[84.459,97.0921],[84.3361,96.9943],[84.2149,96.8944],[84.0955,96.7924],[83.9778,96.6883],[83.862,96.5822],[83.7481,96.4741],[83.636,96.364],[83.5259,96.2519],[83.4178,96.138],[83.3117,96.0222],[83.2076,95.9045],[83.1056,95.7851],[83.0057,95.6639],[82.9079,95.541],[82.8123,95.4163],[82.7188,95.2901],[82.6276,95.1622],[82.5387,95.0327],[82.452,94.9018],[82.3676,94.7693],[82.2855,94.6353],[82.2058,94.5],[82.1284,94.3633],[82.0535,94.2252],[81.9809,94.0859],[81.9109,93.9453],[81.8432,93.8036],[81.7781,93.6606],[81.7155,93.5166],[81.6553,93.3715],[81.5978,93.2253],[81.5428,93.0782],[81.4903,92.9301],[81.4405,92.7812],[81.3933,92.6313],[81.3486,92.4807],[81.3067,92.3294],[81.2673,92.1773],[81.2307,92.0246],[81.1967,91.8712],[81.1654,91.7173],[81.1367,91.5628],[81.1108,91.4079],[81.0876,91.2526],[81.0671,91.0968],[81.0493,90.9408],[81.0342,90.7844],[81.0219,90.6278],[81.0123,90.471],[81.0055,90.3141],[81.0014,90.1571],[81,90]]
M73 P0 R3
;TYPE:Custom
START_PRINT EXTRUDER_TEMP=220 BED_TEMP=60
G90
G21
M83 ; use relative distances for extrusion
; Filament gcode
SET_PRESSURE_ADVANCE ADVANCE=0.05; Override pressure advance value
M106 S0
;LAYER_CHANGE
;Z:0.3
;HEIGHT:0.3
;BEFORE_LAYER_CHANGE
;0.3
G92 E0

G1 E-.8 F2400
;AFTER_LAYER_CHANGE
;0.3
;_SET_FAN_SPEED_CHANGING_LAYER
SET_VELOCITY_LIMIT ACCEL=500 ACCEL_TO_DECEL=250
G1 Z.4 F21000
G1 X81.869 Y81.509
G1 Z.4
G1 Z.3
G1 E.8 F1800
;TYPE:Skirt
;WIDTH:0.48
G1 F3000
G1 X82.782 Y80.721 E.06251
G1 X83.749 Y80.043 E.06123
G1 X84.685 Y79.514 E.05572
G1 X85.741 Y79.043 E.05996
G1 X86.91 Y78.658 E.06379
G1 X87.983 Y78.418 E.057
G1 X89.025 Y78.285 E.05444
G1 X90.255 Y78.247 E.06379
G1 X91.482 Y78.338 E.06379
G1 X92.62 Y78.54 E.05995
G1 X93.68 Y78.835 E.057
G1 X94.759 Y79.25 E.05995
G1 X95.743 Y79.742 E.057
G1 X96.783 Y80.399 E.06378
G1 X97.594 Y81.026 E.05317
G1 X98.491 Y81.869 E.06379
G1 X99.279 Y82.782 E.06251
G1 X99.957 Y83.749 E.06123
G1 X100.486 Y84.685 E.05572
G1 X100.957 Y85.741 E.05996
G1 X101.342 Y86.91 E.06379
G1 X101.582 Y87.983 E.057
G1 X101.715 Y89.025 E.05444
G1 X101.753 Y90.255 E.06379
G1 X101.662 Y91.482 E.06379
G1 X101.46 Y92.62 E.05995
G1 X101.165 Y93.68 E.057
G1 X100.75 Y94.759 E.05995
G1 X100.258 Y95.743 E.057
G1 X99.601 Y96.783 E.06378
G1 X98.974 Y97.594 E.05317
G1 X98.131 Y98.491 E.06379
G1 X97.218 Y99.279 E.06251
G1 X96.251 Y99.957 E.06123
G1 X95.315 Y100.486 E.05572
G1 X94.259 Y100.957 E.05996
G1 X93.09 Y101.342 E.06379
G1 X92.017 Y101.582 E.057
G1 X90.975 Y101.715 E.05444
G1 X89.745 Y101.753 E.06379
G1 X88.518 Y101.662 E.06379
G1 X87.38 Y101.46 E.05995
G1 X86.32 Y101.165 E.057
G1 X85.241 Y100.75 E.05995
M73 P1 R3
G1 X84.257 Y100.258 E.057
G1 X83.217 Y99.601 E.06378
G1 X82.406 Y98.974 E.05317
G1 X81.509 Y98.131 E.06379
G1 X80.721 Y97.218 E.06251
G1 X80.043 Y96.251 E.06123
G1 X79.514 Y95.315 E.05572
G1 X79.043 Y94.259 E.05996
G1 X78.658 Y93.09 E.06379
G1 X78.418 Y92.017 E.057
G1 X78.285 Y90.975 E.05444
G1 X78.247 Y89.745 E.06379
G1 X78.338 Y88.518 E.06379
G1 X78.54 Y87.38 E.05995
G1 X78.835 Y86.32 E.057
G1 X79.25 Y85.241 E.05995
G1 X79.742 Y84.257 E.057
G1 X80.399 Y83.217 E.06378
G1 X81.026 Y82.406 E.05317
G1 X81.842 Y81.538 E.06172
G1 X82.144 Y81.822 F21000
G1 F3000
G1 X82.153 Y81.813 E.00065
G1 X83.035 Y81.051 E.06044
G1 X83.973 Y80.394 E.05935
G1 X84.87 Y79.886 E.05346
G1 X85.897 Y79.428 E.05826
G1 X87.024 Y79.057 E.06153
G1 X88.051 Y78.828 E.05456
G1 X89.054 Y78.699 E.05238
G1 X90.24 Y78.662 E.06153
G1 X91.424 Y78.749 E.06153
G1 X92.531 Y78.945 E.05826
G1 X93.544 Y79.228 E.05456
G1 X94.593 Y79.631 E.05826
G1 X95.535 Y80.102 E.05456
G1 X96.539 Y80.735 E.06153
G1 X97.322 Y81.34 E.05129
G1 X98.187 Y82.153 E.06153
G1 X98.949 Y83.035 E.06044
G1 X99.606 Y83.973 E.05935
G1 X100.114 Y84.87 E.05346
G1 X100.572 Y85.897 E.05826
G1 X100.943 Y87.024 E.06153
G1 X101.172 Y88.051 E.05456
G1 X101.301 Y89.054 E.05238
G1 X101.338 Y90.24 E.06153
G1 X101.251 Y91.424 E.06153
G1 X101.055 Y92.531 E.05826
G1 X100.772 Y93.544 E.05456
G1 X100.369 Y94.593 E.05826
G1 X99.898 Y95.535 E.05456
G1 X99.265 Y96.539 E.06153
G1 X98.66 Y97.322 E.05129
G1 X97.847 Y98.187 E.06153
G1 X96.965 Y98.949 E.06044
G1 X96.027 Y99.606 E.05935
G1 X95.13 Y100.114 E.05346
G1 X94.103 Y100.572 E.05826
G1 X92.976 Y100.943 E.06153
G1 X91.949 Y101.172 E.05456
G1 X90.946 Y101.301 E.05238
G1 X89.76 Y101.338 E.06153
G1 X88.576 Y101.251 E.06153
G1 X87.469 Y101.055 E.05826
G1 X86.456 Y100.772 E.05456
G1 X85.407 Y100.369 E.05826
G1 X84.465 Y99.898 E.05456
G1 X83.461 Y99.265 E.06153
G1 X82.678 Y98.66 E.05129
G1 X81.813 Y97.847 E.06153
G1 X81.051 Y96.965 E.06044
G1 X80.394 Y96.027 E.05935
G1 X79.886 Y95.13 E.05346
G1 X79.428 Y94.103 E.05826
G1 X79.057 Y92.976 E.06153
G1 X78.828 Y91.949 E.05456
G1 X78.699 Y90.946 E.05238
G1 X78.662 Y89.76 E.06153
G1 X78.749 Y88.576 E.06153
G1 X78.945 Y87.469 E.05826
G1 X79.228 Y86.456 E.05456
G1 X79.631 Y85.407 E.05826
G1 X80.102 Y84.465 E.05456
G1 X80.735 Y83.461 E.06153
G1 X81.34 Y82.678 E.05129
G1 X82.117 Y81.851 E.05881
; printing object Cone id:0 copy 0
G1 E-.56 F2400
;WIPE_START
G1 F3000
G1 X82.153 Y81.813 E-.01261
G1 X82.869 Y81.193 E-.22739
;WIPE_END
EXCLUDE_OBJECT_START NAME=Cone_id_0_copy_0
G1 Z.7 F21000
M73 P2 R3
G1 X94.047 Y96.71 Z.7
G1 Z.3
G1 E.8 F1800
;TYPE:Inner wall
;WIDTH:0.48
G1 F3600
G1 X93.743 Y96.895 E.01843
G1 X92.993 Y97.248 E.04299
G1 X92.359 Y97.482 E.03503
G1 X91.631 Y97.67 E.039
G1 X90.82 Y97.799 E.04257
G1 X90 Y97.842 E.04254
G1 X89.18 Y97.799 E.04258
G1 X88.294 Y97.654 E.0465
G1 X87.641 Y97.482 E.03503
G1 X86.865 Y97.188 E.04301
G1 X86.257 Y96.895 E.03501
G1 X85.551 Y96.457 E.04306
G1 X85.01 Y96.054 E.03498
G1 X84.4 Y95.49 E.04305
G1 X83.946 Y94.99 E.03499
G1 X83.456 Y94.321 E.04303
G1 X83.105 Y93.743 E.03501
G1 X82.752 Y92.993 E.04299
G1 X82.518 Y92.359 E.03503
G1 X82.33 Y91.631 E.039
G1 X82.201 Y90.82 E.04257
G1 X82.158 Y90 E.04254
G1 X82.201 Y89.18 E.04258
G1 X82.346 Y88.294 E.0465
G1 X82.518 Y87.641 E.03503
G1 X82.812 Y86.865 E.04301
G1 X83.105 Y86.257 E.03501
G1 X83.543 Y85.551 E.04306
G1 X83.946 Y85.01 E.03498
G1 X84.51 Y84.4 E.04305
G1 X85.01 Y83.946 E.03499
G1 X85.679 Y83.456 E.04303
G1 X86.257 Y83.105 E.03501
G1 X87.007 Y82.752 E.04299
G1 X87.641 Y82.518 E.03503
G1 X88.369 Y82.33 E.039
G1 X89.18 Y82.201 E.04257
G1 X90 Y82.158 E.04254
G1 X90.82 Y82.201 E.04258
G1 X91.706 Y82.346 E.0465
G1 X92.359 Y82.518 E.03503
G1 X93.135 Y82.812 E.04301
G1 X93.743 Y83.105 E.03501
G1 X94.449 Y83.543 E.04306
G1 X94.99 Y83.946 E.03498
G1 X95.6 Y84.51 E.04305
G1 X96.054 Y85.01 E.03499
G1 X96.544 Y85.679 E.04303
G1 X96.895 Y86.257 E.03501
G1 X97.248 Y87.007 E.04299
G1 X97.482 Y87.641 E.03503
G1 X97.67 Y88.369 E.039
G1 X97.799 Y89.18 E.04257
G1 X97.842 Y90 E.04254
G1 X97.799 Y90.82 E.04258
G1 X97.654 Y91.706 E.0465
G1 X97.482 Y92.359 E.03503
G1 X97.188 Y93.135 E.04301
G1 X96.895 Y93.743 E.03501
G1 X96.457 Y94.449 E.04306
G1 X96.054 Y94.99 E.03498
G1 X95.49 Y95.6 E.04305
G1 X94.99 Y96.054 E.03499
G1 X94.321 Y96.544 E.04303
G1 X94.081 Y96.689 E.0145
G1 X94.264 Y97.084 F21000
G1 F3600
G1 X94.256 Y97.089 E.00048
G1 X93.627 Y97.431 E.03712
G1 X92.826 Y97.771 E.04512
G1 X92.142 Y97.986 E.03714
G1 X91.294 Y98.167 E.04497
G1 X90.433 Y98.257 E.04489
G1 X89.567 Y98.257 E.04486
G1 X88.706 Y98.167 E.04489
G1 X87.858 Y97.986 E.04497
G1 X87.174 Y97.771 E.03714
G1 X86.373 Y97.431 E.04512
G1 X85.744 Y97.089 E.03712
G1 X85.022 Y96.602 E.04516
G1 X84.469 Y96.147 E.0371
G1 X83.853 Y95.531 E.04516
G1 X83.398 Y94.978 E.0371
G1 X82.911 Y94.256 E.04516
G1 X82.569 Y93.627 E.03712
G1 X82.229 Y92.826 E.04512
G1 X82.014 Y92.142 E.03714
G1 X81.833 Y91.294 E.04497
G1 X81.743 Y90.433 E.04489
G1 X81.743 Y89.567 E.04486
G1 X81.833 Y88.706 E.04489
G1 X82.014 Y87.858 E.04497
G1 X82.229 Y87.174 E.03714
G1 X82.569 Y86.373 E.04512
G1 X82.911 Y85.744 E.03712
G1 X83.398 Y85.022 E.04516
G1 X83.853 Y84.469 E.0371
G1 X84.469 Y83.853 E.04516
G1 X85.022 Y83.398 E.0371
G1 X85.744 Y82.911 E.04516
G1 X86.373 Y82.569 E.03712
G1 X87.174 Y82.229 E.04512
G1 X87.858 Y82.014 E.03714
G1 X88.706 Y81.833 E.04497
G1 X89.567 Y81.743 E.04489
G1 X90.433 Y81.743 E.04486
G1 X91.294 Y81.833 E.04489
G1 X92.142 Y82.014 E.04497
G1 X92.826 Y82.229 E.03714
G1 X93.627 Y82.569 E.04512
G1 X94.256 Y82.911 E.03712
G1 X94.978 Y83.398 E.04516
G1 X95.531 Y83.853 E.0371
G1 X96.147 Y84.469 E.04516
G1 X96.602 Y85.022 E.0371
G1 X97.089 Y85.744 E.04516
G1 X97.431 Y86.373 E.03712
G1 X97.631 Y86.844 E.02655
G1 X97.879 Y87.516 E.0371
G1 X98.077 Y88.283 E.04107
G1 X98.212 Y89.137 E.04482
M73 P3 R3
G1 X98.257 Y90.433 E.06721
G1 X98.167 Y91.294 E.04489
G1 X97.986 Y92.142 E.04497
G1 X97.771 Y92.826 E.03714
G1 X97.431 Y93.627 E.04512
G1 X97.089 Y94.256 E.03712
G1 X96.602 Y94.978 E.04516
G1 X96.147 Y95.531 E.0371
G1 X95.531 Y96.147 E.04516
G1 X94.978 Y96.602 E.0371
G1 X94.297 Y97.062 E.04261
G1 X94.496 Y97.428 F21000
;TYPE:Outer wall
G1 F3600
G1 X94.472 Y97.445 E.00151
G1 X93.808 Y97.806 E.03919
G1 X92.97 Y98.161 E.04719
G1 X92.248 Y98.389 E.03921
G1 X91.359 Y98.578 E.04713
G1 X90.454 Y98.673 E.04715
G1 X89.546 Y98.673 E.04712
G1 X88.641 Y98.578 E.04715
G1 X87.752 Y98.389 E.04713
G1 X87.03 Y98.161 E.03921
G1 X86.192 Y97.806 E.04719
G1 X85.528 Y97.445 E.03919
G1 X84.773 Y96.935 E.04723
G1 X84.19 Y96.455 E.03917
G1 X83.545 Y95.81 E.04723
G1 X83.065 Y95.227 E.03917
G1 X82.555 Y94.472 E.04723
G1 X82.194 Y93.808 E.03919
G1 X81.839 Y92.97 E.04719
G1 X81.611 Y92.248 E.03921
G1 X81.422 Y91.359 E.04713
G1 X81.327 Y90.454 E.04715
G1 X81.327 Y89.546 E.04712
G1 X81.422 Y88.641 E.04715
G1 X81.611 Y87.752 E.04713
G1 X81.839 Y87.03 E.03921
G1 X82.194 Y86.192 E.04719
G1 X82.555 Y85.528 E.03919
G1 X83.065 Y84.773 E.04723
G1 X83.545 Y84.19 E.03917
G1 X84.19 Y83.545 E.04723
G1 X84.773 Y83.065 E.03917
G1 X85.528 Y82.555 E.04723
G1 X86.192 Y82.194 E.03919
G1 X87.03 Y81.839 E.04719
G1 X87.752 Y81.611 E.03921
G1 X88.641 Y81.422 E.04713
G1 X89.546 Y81.327 E.04715
G1 X90.454 Y81.327 E.04712
G1 X91.359 Y81.422 E.04715
G1 X92.248 Y81.611 E.04713
G1 X92.97 Y81.839 E.03921
G1 X93.808 Y82.194 E.04719
G1 X94.472 Y82.555 E.03919
G1 X95.227 Y83.065 E.04723
